X:1
T:Reverend Brother's Jig
R:jig
M:6/8
K:Ador
 "Am"ABA cBc | dcd ege | ABA cde |"G" dcA G3 |
"Am"ABA cBc | dcd ege | a2a ged |"G" cAG "Am"A2d :|
|:"Am"a2a aba | "G"ged g3 |"Am" e2a aba | "G"ged "Am"cAA |
"Am"a2a aba | "G"ged g3  | "Am"e2a ged | "G"cAG "Am"A3 :|
